X:41
T:Reel du Goglu
C:Joseph Allard
M:2/4
L:1/16
Z:abc by Bruce Osborne - bosborne@kos.net
K:D
fg|afge dfed|cdec ABAG|FAdf gfed|cdec A2fg|!
afge dfed|cdec ABAG|FAdf gecd|e2d2 d2:|!
|:cd|eA (3AAA Adfd|eA (3AAA Adfd|gfed fedc|edcB AGFE|!
DFAc d2cB|Ace^g a2^ga|bagf gecd|e2d2 d2:|!
